X:1
T:James Gibb editions
T:O Herr hilf - Schütz
T:#
%%score [ 1 2 3 ] 4
L:1/8
Q:1/4=100
M:4/4
K:F
V:1 treble nm="Soprano I" snm="S I"
V:2 treble nm="Soprano II" snm="S II"
V:3 treble-8 nm="Tenor" snm="T"
V:4 bass nm="Continuo"
V:1
"^Heinrich Schütz\n(1585-1672)""^O Herr hilf, SWV 297""^Psalm 118:25-26" (G>A G>A B>c Bc/d/ | %1
w: O * * * * * * * *|
 _e2) c2 d2 z B | c3 A B3 G | A4 G4 | z8 |[M:4/4] z8 | (D>E D>E F>G FG/A/ | B2) G2 A2 z F | %8
w: * Herr hilf, o|Herr, lass wohl ge-|lin- gen,|||o * * * * * * * *|* Herr hilf, o|
 G3 E F3 D | E4 D2 z d | _e2 z e f3 d | _e3 c d4 | c4 z4 | (G>A G>A B>c Bc/d/ | _e2) c2 d2 z B | %15
w: Herr, lass wohl ge-|lin- gen, o|Herr, o Herr, lass|wohl ge- lin-|gen,|o * * * * * * * *|* Herr hilf, o|
 c2 z A B4- | BG A3 F (G2- | G2 ^FE F4) ||[M:3/2] x12 |[M:3/2][Q:1/4=200] G8 B4 | d4 c4 B4 | %21
w: Herr, o Herr,|* lass wohl ge- lin\-|||gen. Ge-|lo- bet sei,|
 A8 B4 | F4 F6 G2 | A8 B4 | c8 B4 |[Q:1/4=200][Q:1/4=200][Q:1/4=200][Q:1/4=200] B4 A8 | B4 B4 c4 | %27
w: der da|kömmt, der da|kömmt im|Na- men|des Her-|ren, der da|
 d8 d4 | _e8 d4 | d4 c8 | B8 z4 | z4 z4 B4 | d4 c4 B4 | A8 B4 | ^F4 F4 G4 | A8 z4 | z4 A4 =B4 | %37
w: kömmt im|Na- men|des Her-|ren,|ge-|lo- bet sei,|der da|kömmt, der da|kömmt,|der da|
 ^c8 c4 | d8 d4 | d4 e8 ||[M:4/4][Q:1/4=100] d8 | z8 | %42
w: kömmt im|Na- men|des Her-|ren.||
[M:4/4][Q:1/4=100][Q:1/4=100][Q:1/4=100][Q:1/4=100] z8 | z2 d3 B c2- | cA B3 G (c2- | c2 =B2) c4 | %46
w: |Ho- si- an\-|* na in der Hö\-|* * he,|
 z8 | z8 | f3 c d2 A2 | z2 f3 c d2- | dB c3 A (d2- | d2 ^c2) d4 | z8 | z2 A3 F G2- | GE F3 D E2- | %55
w: ||Ho- si- an- na,|Ho- si- an\-|* na in der Hö\-|* * he,||Ho- si- an\-|* na, Ho- si- an\-|
 EC F3 D E2 | F8 | z4 f3 d | _e3 c[Q:1/4=98] d3[Q:1/4=97] B | %59
w: * na in der Hö-|he,|Ho- si-|an- na, Ho- si|
[Q:1/4=95] c3[Q:1/4=94] A[Q:1/4=92] B3[Q:1/4=91] G |[Q:1/4=87] A8 |[Q:1/4=85] =B16 |] %62
w: an- na in der|Hö-|he.|
V:2
 z8 | z8 | z8 | z8 | z8 |[M:4/4] (D>E D>E F>G FG/A/ | B2) G2 A2 z F | G2 z E F4- | FD E3 ^C (D2- | %9
w: |||||O * * * * * * * *|* Herr hilf, o|Herr, o Herr,|* lass wohl ge- lin\-|
 D2 ^C2) DA B2 | z B c2 z c d2- | dB c3 A =B2 | c4 z4 | z8 | (G>A G>A B>c Bc/d/ | _e2) c2 d2 z B | %16
w: * * gen, o Herr,|o Herr, o Herr,|* lass wohl ge- lin-|gen,||o * * * * * * * *|* Herr hilf, o|
 c3 A B3 G | A8 ||[M:3/2] x12 |[M:3/2] G12 | z12 | z12 | z12 | z8 d4 | f4 _e4 d4 | c8 d4 | %26
w: Herr, lass wohl ge-|lin-||gen.||||Ge-|lo- bet sei,|der da|
 B4 d4 c4 | B8 A4 | G8 B4 | B4 A8 | B8 B4 | d4 c4 B4 | A8 G4 | ^F4 F4 G4 | A8 z4 | z4 A4 =B4 | %36
w: kömmt, der da|kömmt im|Na- men|des Her-|ren, ge-|lo- bet sei,|der da|kömmt, der da|kömmt,|der da|
 ^c4 c4 d4 | e8 A4 | B8 B4 | d4 (d6 ^c2) ||[M:4/4] d8 | z8 |[M:4/4] z8 | z4 B3 G | A3 F c3 A | %45
w: kömmt, der da|kömmt im|Na- men|des Her\- *|ren.|||Ho- si-|an- na in der|
 d4 c4 | z8 | z8 | z4 f3 c | d2 A2 c3 A | B3 G d3 =B | =e4 d4 | z8 | _e3 c d3 B | c3 A B3 G | %55
w: Hö- he,|||Ho- sÌ-|an- na, Ho- si-|an- na in der|Hö- he,||Ho- si- an- na,|Ho- si- an- na|
 A3 F G4 | A4 z4 | z2 c3 A B2- | BG A3 F G2- | GE F3 D (G2- | G2 ^FE F4) | G16 |] %62
w: in der Hö-|he,|Ho- si- an\-|* na, Ho- si- an\-|* na in der Hö\-||he.|
V:3
 z8 | z8 | z8 | z8 | d>_e d>c B>c BA/G/ |[M:4/4][K:treble-8] ^F2 G2 D4 | G2 B2 d4 | G2 c2 F2 z2 | %8
w: ||||O * * * * * * * *|* Herr hilf,|o Herr hilf,|o Herr hilf,|
 z B c3 A B2- | BG A2 D4 | z8 | z8 | G>A G>A B>c Bc/d/ | _e2 c2 d4 | c2 C2 G4 | z4 z2 z d | %16
w: o Herr, lass wohl|* ge- lin- gen|||o * * * * * * * *|* Herr hilf,|o Herr hilf,|o|
 _e3 c d3 B | (cd_ec d4) ||[M:3/2] x12 |[M:3/2][K:treble-8] G8 z4 | z4 z4 G4 | d4 c4 B4 | A8 B4 | %23
w: Herr, lass wohl ge-|lin\- * * * *||gen.|Ge-|lo- bet sei,|der da|
 F8 G4 | A8 B4 | _E4 F8 | B8 z4 | z12 | z12 | z4 z4 F4 | B4 A4 G4 | ^F8 G4 | D12- | D8 z4 | %34
w: kömmt im|Na- men|des Her-|ren,|||ge-|lo- bet sei,|del da|kömmt,||
 z4 D4 E4 | F4 F4 G4 | A12 | A12 | G8 G4 | B4 A8 ||[M:4/4] D8 | d2 B2 c2 A2 | %42
w: der da|kömmt, der da|kömmt|im|Na- men|des Her-|ren.|Ho- si- an- na|
[M:4/4][K:treble-8] B2 G2 d4 | G4 z4 | z8 | z8 | c2 A2 B2 G2 | A2 F2 c4 | F8 | z8 | z8 | z8 | %52
w: in der Hö-|he,|||Ho- si- an- na|in der Hö-|he,||||
 _e2 c2 d2 B2 | c2 A2 B2 G2 | A2 F2 G2 E2 | F2 A2 c4 | F4 f2 d2 | _e2 c2 d2 B2 | c2 A2 B2 G2 | %59
w: Ho- si- an- na,|Ho- si- an- na,|Ho- si- an- na|in der Hö-|he, Ho- si-|an- na, Ho- si-|an- na, Ho- si-|
 A2 F2 G2 B2 | d8 | G16 |] %62
w: an- na in der|Hö-|he.|
V:4
 G,2 F,2 _E,2 D,2 | C,2 B,,A,, G,,2 G,2 | _E,2 F,2 D,2 E,2 | C,2 D,2 G,,4 | G,2 ^F,2 G,4 | %5
w: ||6 * 6 *|||
w: |||||
[M:4/4] D,2 G,,2 D,4 | G,,2 B,,2 D,4 | G,,2 C,2 F,,2 A,,2 | B,,2 C,2 A,,2 B,,2 | %9
w: |* 6 *|* * * 6|6 * 6 *|
w: ||||
 G,,2 A,,2 D,2 G,2 | _E,2 C,2 F,2 B,,2 | _E,2 C,2 F,2 G,2 | C,2 B,,A,, G,,4 | C,4 G,4 | %14
w: 6 * * *|||||
w: |||||
 C2 C,2 G,2 G,,2 | C,2 F,2 B,,2 D,2 | _E,2 C,2 D,2 B,,2 | C,4 D,4 ||[M:3/2] x12 |[M:3/2] G,,8 G,4 | %20
w: |* * * 6|6 6 6 6||||
w: ||||||
 ^F,8 G,4 | D,4 C,4 B,,4 | A,,8 B,,4 | F,8 G,4 | A,8 B,4 | _E,4 F,8 | B,,4 B,4 A,4 | G,8 F,4 | %28
w: |* 6 *|6 *|||||* 6|
w: ||||||||
 _E,8 B,,4- | B,,4 F,8 | B,4 A,4 G,4 | ^F,8 G,4 | D,8- D,4 | D,8- D,4 | D,8 E,4 | F,8 G,4 | A,12 | %37
w: ||||* 6|* 6||||
w: ||||* 4|* 4||||
 A,12 | G,8 G,4 | B,4 x4- x4 ||[M:4/4] D,8 | D2 B,2 C2 A,2 |[M:4/4] B,2 G,2 D4 | G,4 G,2 _E,2 | %44
w: ||* 4||||* * 6|
w: |||||||
 F,2 D,2 _E,2 F,2 | x2- x2 C,4 | C2 A,2 B,2 G,2 | A,2 F,2 C4 | F,4- x2 x2 | x2- x2 A,2 ^F,2 | %50
w: * 6 6 *|4 *||||6 * 6|
w: ||||||
 G,2 E,2 F,2 G,2 | x2- x2 D,4 | C,4 G,4 | C2 A,2 B,2 G,2 | A,2 F,2 G,2 E,2 | F,2 A,2 x2- x2 | %56
w: * 6 * *|4 *||||* 6 4|
w: ||||||
 F,4 F,2 D,2 | _E,2 C,2 D,2 B,,2 | C,2 A,,2 B,,2 G,,2 | A,,2 F,,2 G,,2 B,,2 | x4- x4 | G,,16 |] %62
w: |||* * * 6|4||
w: ||||||

